X:910
T:Lady on the Island
R:reel
Z:transcribed by Dave Marshall
M:C|
K:D
| BAFB AFEF | DEFA B2dB | BAFB A3B | d2fd efdB |
BAFB AFEF | DEFA B2dB | BAFB A3B | d2fd edBA |
| d2fd efge | afdf edBc | d2fd efge | afdf edBA |
d2fd efge | afdf edBc | defg a2bf | afed B2dB |
